src/lib/packages/icons/src/assets/line/hospital.svg

<svg xmlns="http://www.w3.org/2000/svg" width="24" height="24" fill="none"><path fill="currentColor" d="M9.75 11V7a.75.75 0 0 1 1.5 0v1.25h1.5V7a.75.75 0 0 1 1.5 0v4a.75.75 0 0 1-1.5 0V9.75h-1.5V11a.75.75 0 0 1-1.5 0Zm13 10a.75.75 0 0 1-.75.75H2a.75.75 0 0 1 0-1.5h.25V11c0-1.748 1.002-2.75 2.75-2.75h.25V6c0-2.418 1.332-3.75 3.75-3.75h6c2.418 0 3.75 1.332 3.75 3.75v2.25H19c1.748 0 2.75 1.002 2.75 2.75v9.25H22a.75.75 0 0 1 .75.75Zm-16-.75h2.5V17A2.752 2.752 0 0 1 12 14.25 2.752 2.752 0 0 1 14.75 17v3.25h2.5V6c0-1.577-.673-2.25-2.25-2.25H9c-1.577 0-2.25.673-2.25 2.25v14.25Zm6.5-3.25c0-.689-.561-1.25-1.25-1.25s-1.25.561-1.25 1.25v3.25h2.5V17Zm-9.5 3.25h1.5V9.75H5c-.911 0-1.25.339-1.25 1.25v9.25Zm16.5 0V11c0-.911-.339-1.25-1.25-1.25h-.25v10.5h1.5Z"/></svg>

<svg width="24" height="24" viewBox="0 0 24 24" fill="none" xmlns="http://www.w3.org/2000/svg">
<path d="M9.75 11V7C9.75 6.586 10.086 6.25 10.5 6.25C10.914 6.25 11.25 6.586 11.25 7V8.25H12.75V7C12.75 6.586 13.086 6.25 13.5 6.25C13.914 6.25 14.25 6.586 14.25 7V11C14.25 11.414 13.914 11.75 13.5 11.75C13.086 11.75 12.75 11.414 12.75 11V9.75H11.25V11C11.25 11.414 10.914 11.75 10.5 11.75C10.086 11.75 9.75 11.414 9.75 11ZM22.75 21C22.75 21.414 22.414 21.75 22 21.75H2C1.586 21.75 1.25 21.414 1.25 21C1.25 20.586 1.586 20.25 2 20.25H2.25V11C2.25 9.252 3.252 8.25 5 8.25H5.25V6C5.25 3.582 6.582 2.25 9 2.25H15C17.418 2.25 18.75 3.582 18.75 6V8.25H19C20.748 8.25 21.75 9.252 21.75 11V20.25H22C22.414 20.25 22.75 20.586 22.75 21ZM6.75 20.25H9.25V17C9.25 15.483 10.483 14.25 12 14.25C13.517 14.25 14.75 15.483 14.75 17V20.25H17.25V6C17.25 4.423 16.577 3.75 15 3.75H9C7.423 3.75 6.75 4.423 6.75 6V20.25ZM13.25 17C13.25 16.311 12.689 15.75 12 15.75C11.311 15.75 10.75 16.311 10.75 17V20.25H13.25V17ZM3.75 20.25H5.25V9.75H5C4.089 9.75 3.75 10.089 3.75 11V20.25ZM20.25 20.25V11C20.25 10.089 19.911 9.75 19 9.75H18.75V20.25H20.25Z" fill="currentColor"/>
</svg>
